src/assets/filled/KyberNetwork.svg

<svg width="24" height="24" viewBox="0 0 24 24"  xmlns="http://www.w3.org/2000/svg">
<path d="M17.8201 8.70003C18.5301 8.31003 19.4001 8.82004 19.3901 9.63004L19.3501 15.05C19.3401 15.87 18.4501 16.37 17.7501 15.95L13.0701 13.15C12.3701 12.73 12.3901 11.71 13.1001 11.32L17.8201 8.70003Z" />
<path d="M19.25 6.28065C19.4 6.66065 19.17 7.05065 18.81 7.25065L13.18 10.3607C12.38 10.8007 11.44 10.0907 11.64 9.21066L12.86 3.68065C13.01 2.98065 13.8 2.64066 14.42 2.99066L18.3401 5.23065C18.7701 5.48065 19.08 5.85065 19.25 6.28065Z" />
<path d="M12.0101 2.6697L9.94012 11.9697C9.91012 12.1097 9.91012 12.2597 9.94012 12.4097L11.6701 21.0897C11.7901 21.6897 11.2802 22.2597 10.7802 21.8897L5.49011 18.1197C4.93011 17.7197 4.6001 17.0797 4.6001 16.3997V7.0897C4.6001 6.3297 5.0001 5.6297 5.6701 5.2497L10.9601 2.23971C11.1101 2.14971 11.2701 2.0897 11.4301 2.0397C11.8101 1.9097 12.0901 2.2897 12.0101 2.6697Z" />
<path d="M17.6302 16.8097C18.2802 17.1997 18.3202 18.1298 17.7102 18.5698L14.2401 21.0897C13.6201 21.5397 12.7302 21.1997 12.5802 20.4397L11.5601 15.2398C11.3801 14.3398 12.3502 13.6597 13.1402 14.1297L17.6302 16.8097Z" />
</svg>

<?xml version="1.0" encoding="UTF-8"?>
<svg width="24" height="24" viewBox="0 0 24 24" xmlns="http://www.w3.org/2000/svg">
 <path d="m17.82 8.7c0.71-0.39 1.58 0.12001 1.57 0.93001l-0.04 5.42c-0.01 0.82-0.9 1.32-1.6 0.9l-4.68-2.8c-0.7-0.42-0.68-1.44 0.03-1.83l4.72-2.62z"/>
 <path d="m19.25 6.2806c0.15 0.38-0.08 0.77-0.44 0.97l-5.63 3.11c-0.8 0.44-1.74-0.27-1.54-1.15l1.22-5.53c0.15-0.7 0.94-1.04 1.56-0.68999l3.9201 2.24c0.43 0.25 0.7399 0.62 0.9099 1.05z"/>
 <path d="m12.01 2.6697-2.07 9.3c-0.03 0.14-0.03 0.29 0 0.44l1.73 8.68c0.12 0.6-0.3899 1.17-0.8899 0.8l-5.2901-3.77c-0.56-0.4-0.89001-1.04-0.89001-1.72v-9.31c0-0.76 0.4-1.46 1.07-1.84l5.29-3.01c0.15-0.09 0.31-0.15001 0.47-0.20001 0.38-0.13 0.66 0.25 0.58 0.63z"/>
 <path d="m17.63 16.81c0.65 0.39 0.69 1.3201 0.08 1.7601l-3.4701 2.5199c-0.62 0.45-1.5099 0.11-1.6599-0.65l-1.0201-5.1999c-0.18-0.9 0.7901-1.5801 1.5801-1.1101l4.49 2.68z"/>
</svg>
